X:129
T:Reels simple chords 450
M:3/4
L:1/8
K:Em
GA [B2G,2B,2D2] B2 | B2 AG [B2G,2B,2D2] | B2 B2 g2 | [d2G,2B,2D2] B2 B2 | AG [B2A,2C2E2] A2 |
A2 GA [B2G,2B,2D2] | B2 cB AG | [B2G,2B,2D2] d2 g2 | ga [bG,B,D]a gf |
ag fe [d2E,2G,2B,2] | B2 B2 GA | [B2G,2B,2D2] B2 B2 | AG [B2G,2B,2D2] B2 |
B2 g2 [d2G,2B,2D2] | B2 B2 AG | [B2A,2C2E2] A2 A2 | GA [B2G,2B,2D2] B2 |
cB AG [B2G,2B,2D2] | d2 g2 ga | [bG,B,D]a gf ag | fe [d2E,2G,2B,2] B2 |
B2 Bc [d2G,2B,2D2] | B2 g2 Bc | [d2G,2B,2D2] d2 d2 | Bc [d2G,2B,2D2] B2 |
g2 fg [a2A,2^C2E2G2] | A2 A2 GA | [B2G,2B,2D2] B2 cB | AG [B2G,2B,2D2] d2 |
g2 ga [bG,B,D]a | gf ag fe | [d2E,2G,2B,2] B2 B2 | Bc [d2G,2B,2D2] B2 |
g2 Bc [d2G,2B,2D2] | d2 d2 Bc | [d2G,2B,2D2] B2 g2 | fg [a2A,2^C2E2G2] A2 |
A2 GA [B2G,2B,2D2] | B2 cB AG | [B2G,2B,2D2] d2 g2 | ga [bG,B,D]a gf |
ag fe [d2E,2G,2B,2] | B2 B2 |


